contributed-vectors/mParivahan.svg

<svg width="192" height="192" viewBox="0 0 192 192" fill="none" xmlns="http://www.w3.org/2000/svg">
<path fill-rule="evenodd" clip-rule="evenodd" d="M96 186C144.601 186 184 146.601 184 98C184 49.3989 144.601 10 96 10C47.3989 10 8 49.3989 8 98C8 146.601 47.3989 186 96 186Z" fill="#FF837D"/>
<rect x="56.5" y="41.5" width="54" height="108" rx="5.5" stroke="white" stroke-width="5"/>
<rect x="93" y="83" width="42" height="21" fill="#FF837D"/>
<path fill-rule="evenodd" clip-rule="evenodd" d="M94 121C91.7909 121 90 122.791 90 125V131C90 133.209 91.7909 135 94 135C96.2091 135 98 133.209 98 131V125C98 122.791 96.2091 121 94 121ZM131 121C128.791 121 127 122.791 127 125V131C127 133.209 128.791 135 131 135C133.209 135 135 133.209 135 131V125C135 122.791 133.209 121 131 121Z" fill="#C4C4C4"/>
<path fill-rule="evenodd" clip-rule="evenodd" d="M110 98C110 95.2386 107.761 93 105 93H103C100.239 93 98 95.2386 98 98C98 100.761 100.239 103 103 103H105C107.761 103 110 100.761 110 98ZM129 98C129 95.2386 126.761 93 124 93H122C119.239 93 117 95.2386 117 98C117 100.761 119.239 103 122 103H124C126.761 103 129 100.761 129 98Z" fill="#4A4A4A"/>
<path fill-rule="evenodd" clip-rule="evenodd" d="M99.868 84H126.132C128.201 84 130.056 85.2741 130.799 87.2051L135.335 99H90.6648L95.2013 87.2051C95.9439 85.2741 97.7991 84 99.868 84ZM84.7311 100.499L90.5345 85.4102C92.0199 81.5483 95.7303 79 99.868 79H126.132C130.27 79 133.98 81.5483 135.465 85.4102L141.269 100.499C144.109 102.263 146 105.411 146 109V123C146 124.657 144.657 126 143 126H83C81.3431 126 80 124.657 80 123V109C80 105.411 81.891 102.263 84.7311 100.499Z" fill="white"/>
<path fill-rule="evenodd" clip-rule="evenodd" d="M88 111C90.2091 111 92 109.209 92 107C92 104.791 90.2091 103 88 103C85.7909 103 84 104.791 84 107C84 109.209 85.7909 111 88 111ZM138 111C140.209 111 142 109.209 142 107C142 104.791 140.209 103 138 103C135.791 103 134 104.791 134 107C134 109.209 135.791 111 138 111Z" fill="#F9DE81"/>
<line x1="102.5" y1="108.5" x2="123.5" y2="108.5" stroke="#4A4A4A" stroke-linecap="round"/>
<line x1="102.5" y1="111.5" x2="123.5" y2="111.5" stroke="#4A4A4A" stroke-linecap="round"/>
<line x1="102.5" y1="114.5" x2="123.5" y2="114.5" stroke="#4A4A4A" stroke-linecap="round"/>
<rect x="80" y="118" width="66" height="8" rx="3" fill="#D2D2D2"/>
</svg>

<svg xmlns="http://www.w3.org/2000/svg" width="192" height="192" fill="none"><path fill="#FF837D" fill-rule="evenodd" d="M96 186c48.601 0 88-39.399 88-88s-39.399-88-88-88S8 49.399 8 98s39.399 88 88 88Z" clip-rule="evenodd"/><rect width="54" height="108" x="56.5" y="41.5" stroke="#fff" stroke-width="5" rx="5.5"/><path fill="#FF837D" d="M93 83h42v21H93z"/><path fill="#C4C4C4" fill-rule="evenodd" d="M94 121a4 4 0 0 0-4 4v6a4 4 0 0 0 8 0v-6a4 4 0 0 0-4-4Zm37 0a4 4 0 0 0-4 4v6a4 4 0 0 0 8 0v-6a4 4 0 0 0-4-4Z" clip-rule="evenodd"/><path fill="#4A4A4A" fill-rule="evenodd" d="M110 98a5 5 0 0 0-5-5h-2a5 5 0 0 0 0 10h2a5 5 0 0 0 5-5Zm19 0a5 5 0 0 0-5-5h-2a5 5 0 0 0 0 10h2a5 5 0 0 0 5-5Z" clip-rule="evenodd"/><path fill="#fff" fill-rule="evenodd" d="M99.868 84h26.264a5 5 0 0 1 4.667 3.205L135.335 99h-44.67L95.2 87.205A5 5 0 0 1 99.868 84Zm-15.137 16.499 5.803-15.089A10 10 0 0 1 99.868 79h26.264a9.999 9.999 0 0 1 9.333 6.41l5.804 15.089A9.994 9.994 0 0 1 146 109v14a3 3 0 0 1-3 3H83a3 3 0 0 1-3-3v-14a9.994 9.994 0 0 1 4.731-8.501Z" clip-rule="evenodd"/><path fill="#F9DE81" fill-rule="evenodd" d="M88 111a4 4 0 1 0 0-8 4 4 0 0 0 0 8Zm50 0a4 4 0 1 0 0-8 4 4 0 0 0 0 8Z" clip-rule="evenodd"/><path stroke="#4A4A4A" stroke-linecap="round" d="M102.5 108.5h21M102.5 111.5h21M102.5 114.5h21"/><rect width="66" height="8" x="80" y="118" fill="#D2D2D2" rx="3"/></svg>
